!!!SOCIAL_FUNCTION:	klukluwatk dance
!!!PDT:	1939
!!!OTL: No_34_"The_Other_Tribes_Are_Praising_Me".krn
!!!LANG: Non-Tone
!!!LING_GROUP: Wakashan
!!!REG: Pacific Northwest
**kern	**kern
*staff2	*staff1
=1-	=1-
*clefF4	*clefF4
*k[f#c#g#d#]	*k[f#c#g#d#]
*M2/4	*M2/4
4r	4B\
8r	4B\
8EE/	.
=2||	=2||
*M3/4	*M3/4
8r	8c#\L
8EE/	8B\J
8r	8A\L
8EE/	8G#\J
8r	8G#\L
8EE/	8E\J
=3||	=3||
*M2/4	*M2/4
8r	4G#\
8EE/	.
8r	4G#\
8EE/	.
=4	=4
8EE/	8G#\L
8r	8G#\J
4r	4r
=5	=5
8EE/	4B\
8r	.
8EE/	4B\
8r	.
=6||	=6||
*M3/4	*M3/4
8EE/	8d#\L
8r	8c#\J
8EE/	8c#\L
8r	8B\J
8EE/	8B\
8r	8r
=7||	=7||
*M2/4	*M2/4
8EE/	8F#\L
8r	8E\J
8EE/	8G#\L
8r	8G#\J
=8	=8
8EE/	8B\L
8r	8A\J
8EE/	8G#\
8r	8r
=9||	=9||
*M3/4	*M3/4
8EE/	4G#\
8r	.
8EE/L	8E\L
8EE/J	8E\J
4r	4r
=10	=10
8EE/L	8G#\L
8EE/J	8G#\J
8r	8E/L
8EE/	8C#/J
8r	8r
8EE/	8C#/
=11||	=11||
*M2/4	*M2/4
8r	4E\
8EE/	.
8r	8r
8EE/	8C#/
=12	=12
8r	4E\
8EE/	.
8EE/	8E\L
8r	8E\J
=13	=13
2r	2r
=14	=14
8EE/	4G#\
8r	.
8EE/	4G#\
8r	.
=15	=15
8EE/	8B\L
8r	8A\J
8EE/	8G#\
8r	8r
=16||	=16||
*M3/4	*M3/4
8EE/	4G#\
8r	.
8EE/L	8E\L
8EE/J	8E\J
4r	4r
=17	=17
8EE/L	8G#\L
8EE/J	8G#\J
8r	8E/L
8EE/	8C#/J
8r	8r
8EE/	8C#/
=18||	=18||
*M2/4	*M2/4
8r	4E\
8EE/	.
8r	8r
8EE/	8C#/
=19	=19
8EE/	4E\
8r	.
8EE/L	8E\L
8EE/J	8E\J
==	==
*-	*-
